X: 1
T: The Rose In The Gap
R: hornpipe
M: 4/4
L: 1/8
K: Edor
|:(3FGA|B3cB2AF|B2E2E2(3FGA| B3cB2AF|A2D2D2(3EFG|
B3cB2 AF|AF ABd3e|fedB (3Bcd AF| B2E2E2:|
|:Bd|fedB BdBA|B2E2E2Bd|fedB BdBA|B2D2D2Bd|
fedB BdAF|AF ABd3e|fedB (3Bcd AF| B2E2E2:|
|:Bd|e3g f2eg|f2e2e2Bd|e3g f2eg|f2d2d2Bd|
e3g f2dB|dBdef4|fedB (3Bcd BA|B2E2E2:|


Tune 6171	Setting 18018

